data/styles/clear/style-night/symbols/volcano-m.svg

<svg height="23" viewBox="0 0 23 23" width="23"><path d="m11.4999999 9.50419125c.5092506 0 1.5638756-.47662812 1.5638756-.47662812l3.9003058 6.27914987c.0513779.0903655.0728557.1917412.0728557.292824 0 .4392361-.291423.5857653-.582846.5856482h-9.90838203c-.29142301.0001171-.58284601-.1464121-.58284601-.5856482 0-.1010828.02150702-.2024585.07285575-.292824l3.97450849-6.27914987s.9810738.47662812 1.4896727.47662812zm.5239122-2.1159067c-.3899823.19014194-.7131521.53396562-1.0072728.86171545-.05483-.37009071.0315907-.78291436.17502-1.12007327.1604955-.38028389.427746-.7131303.7705238-.91111315.6703049-.38734071 1.4804079-.22111352 2.10605.19171012.1917232.12741471.3798152.26188623.5838842.36617026.2828643.14348856.5878785.22817034.9019704.20935216.5167085-.03097157 1.014172-.30579529 1.4459123-.59590877-.0308645.3794998-.2262188.75821551-.4491696 1.04440854-.2610776.33519868-.6074865.58297128-.9974689.70411326-.4168527.12898289-.8631174.11134085-1.2763389-.02234658-.3344263-.10859653-.628547-.2928578-.9223047-.49201678-.1917232-.13015903-.3990602-.24698851-.6194692-.30853961-.2451007-.06821588-.4825759-.03959657-.7113366.07252837z" fill="#fff" fill-rule="evenodd" opacity=".6"/></svg>

<svg width="23" height="23" viewBox="0 0 23 23">
  <path fill="#FFF" fill-rule="evenodd" d="M11.4999999,9.50419125 C12.0092505,9.50419125 13.0638755,9.02756313 13.0638755,9.02756313 L16.9641813,15.306713 C17.0155592,15.3970785 17.037037,15.4984542 17.037037,15.599537 C17.037037,16.0387731 16.745614,16.1853023 16.454191,16.1851852 L6.54580897,16.1851852 C6.25438596,16.1853023 5.96296296,16.0387731 5.96296296,15.599537 C5.96296296,15.4984542 5.98446998,15.3970785 6.03581871,15.306713 L10.0103272,9.02756313 C10.0103272,9.02756313 10.991401,9.50419125 11.4999999,9.50419125 Z M12.0239121,7.38828455 C11.6339298,7.57842649 11.31076,7.92225017 11.0166393,8.25 C10.9618093,7.87990929 11.04823,7.46708564 11.1916593,7.12992673 C11.3521548,6.74964284 11.6194053,6.41679643 11.9621831,6.21881358 C12.632488,5.83147287 13.442591,5.99770006 14.0682331,6.4105237 C14.2599563,6.53793841 14.4480483,6.67240993 14.6521173,6.77669396 C14.9349816,6.92018252 15.2399958,7.0048643 15.5540877,6.98604612 C16.0707962,6.95507455 16.5682597,6.68025083 17,6.39013735 C16.9691355,6.76963715 16.7737812,7.14835286 16.5508304,7.43454589 C16.2897528,7.76974457 15.9433439,8.01751717 15.5533615,8.13865915 C15.1365088,8.26764204 14.6902441,8.25 14.2770226,8.11631257 C13.9425963,8.00771604 13.6484756,7.82345477 13.3547179,7.62429579 C13.1629947,7.49413676 12.9556577,7.37730728 12.7352487,7.31575618 C12.490148,7.2475403 12.2526728,7.27615961 12.0239121,7.38828455 Z" opacity=".8"/>
</svg>
